mobile/apps/auth/assets/custom-icons/icons/capacities.svg

<svg width="100%" height="100%" viewBox="0 0 78 78" fill="none" xmlns="http://www.w3.org/2000/svg">
<g style="mix-blend-mode:difference">
<circle cx="38.8209" cy="39" r="13.45" transform="rotate(-15 38.8209 39)" fill="white"></circle>
<path fill-rule="evenodd" clip-rule="evenodd" d="M54.7914 66.0811C54.6942 66.3374 54.5105 66.5518 54.271 66.6852C52.0346 67.9311 49.6099 68.9243 47.0245 69.617C30.1152 74.1478 12.7346 64.1131 8.20379 47.2038C3.67296 30.2946 13.7077 12.9139 30.6169 8.38311C33.2023 7.69037 35.7987 7.33813 38.3584 7.2989C38.6325 7.29469 38.8988 7.38849 39.1111 7.56192C41.8794 9.82347 44.4239 12.3787 46.6916 15.197C47.4731 16.1681 46.2983 17.5912 45.101 17.2444C41.2693 16.1343 37.0954 16.023 32.9609 17.1308C20.8828 20.3671 13.7152 32.7819 16.9515 44.8599C20.1878 56.938 32.6025 64.1056 44.6806 60.8693C48.8151 59.7615 52.3742 57.5781 55.1375 54.7009C56.001 53.8018 57.7299 54.4469 57.5387 55.6787C56.9839 59.2532 56.058 62.7384 54.7914 66.0811ZM65.4625 56.1737C64.7914 57.2153 63.3044 56.5354 63.4669 55.307C64.4343 47.9938 64.0074 40.3692 61.9779 32.7952C59.9484 25.2211 56.5058 18.4044 52.0114 12.5547C51.2565 11.5722 52.2043 10.2398 53.3063 10.8064C60.9824 14.7532 67.0278 21.8023 69.4377 30.7963C71.8476 39.7902 70.1368 48.9176 65.4625 56.1737Z" fill="white"></path>
</g>
</svg>

<svg xmlns="http://www.w3.org/2000/svg" fill="none" viewBox="0 0 78 78"><g fill="#fff" style="mix-blend-mode:difference"><circle cx="38.821" cy="39" r="13.45" transform="rotate(-15 38.82 39)"/><path fill-rule="evenodd" d="M54.791 66.081c-.097.256-.28.47-.52.604a31.76 31.76 0 0 1-7.246 2.932c-16.91 4.53-34.29-5.504-38.821-22.413-4.531-16.91 5.504-34.29 22.413-38.82a31.764 31.764 0 0 1 7.741-1.085c.275-.004.54.09.753.263a51.76 51.76 0 0 1 7.58 7.635c.782.971-.393 2.394-1.59 2.047a22.535 22.535 0 0 0-12.14-.113C20.883 20.367 13.715 32.78 16.95 44.86c3.237 12.078 15.651 19.246 27.73 16.01a22.535 22.535 0 0 0 10.457-6.17c.863-.898 2.592-.253 2.4.979a51.767 51.767 0 0 1-2.747 10.402Zm10.672-9.907c-.672 1.041-2.159.361-1.996-.867a57.61 57.61 0 0 0-1.49-22.512 57.613 57.613 0 0 0-9.966-20.24c-.755-.983.193-2.315 1.295-1.749 7.676 3.947 13.722 10.996 16.132 19.99 2.41 8.994.699 18.122-3.975 25.378Z" clip-rule="evenodd"/></g></svg>
